X: 25771
T: Mary's Shoes
R: jig
M: 6/8
K: Fmajor
~F3 GFD|CFA cag|fdc dcA|cAF GDC|
~F3 GFD|A,CF Acf|dcA cAF|1 GFE FDE:|2 GFE FAc||
~f3 edc|def cAF|CFA CFA|cAF GAc|
~f3 edc|def cAF|~B3 GcB|AFE FAc|
~f3 edc|def cAF|CFA CFA|cAF GAc|
~f3 ~g3|afd cAG|AFD CFA|GFE FDE||

